svgs/solian.svg

<svg width="192" height="192" viewBox="0 0 192 192" fill="none" xmlns="http://www.w3.org/2000/svg">
<path d="M102 105C102 107.209 100.209 109 98 109C95.7909 109 94 107.209 94 105C94 102.791 95.7909 101 98 101C100.209 101 102 102.791 102 105Z" stroke="black" stroke-width="8" stroke-linejoin="round"/>
<path d="M128 105C128 107.209 126.209 109 124 109C121.791 109 120 107.209 120 105C120 102.791 121.791 101 124 101C126.209 101 128 102.791 128 105Z" stroke="black" stroke-width="8" stroke-linejoin="round"/>
<path d="M76 105C76 107.209 74.2091 109 72 109C69.7909 109 68 107.209 68 105C68 102.791 69.7909 101 72 101C74.2091 101 76 102.791 76 105Z" stroke="black" stroke-width="8" stroke-linejoin="round"/>
<path d="M131.227 137.715C139.24 137.715 156.589 155.821 162.45 151.265C170.544 144.973 172.381 117.397 166.739 102.399C161.028 87.2215 150.307 68.9558 131.227 68.9558C130.045 68.9558 128.879 69.014 127.727 69.1305C118.78 50.9831 98.7517 41.0209 78.7955 44.7914C58.8393 48.5619 43.8738 65.1358 42.2327 85.2838C29.1352 88.5575 20.5446 101.034 22.2048 114.37C23.865 127.707 35.255 137.72 48.7593 137.715H131.227Z" stroke="black" stroke-width="12" stroke-linejoin="round"/>
</svg>

<svg xmlns="http://www.w3.org/2000/svg" width="192" height="192" fill="none"><path stroke="#000" stroke-linejoin="round" stroke-width="8" d="M102 105a4 4 0 1 1-8 0 4 4 0 0 1 8 0ZM128 105a4 4 0 1 1-8 0 4 4 0 0 1 8 0ZM76 105a4 4 0 1 1-8 0 4 4 0 0 1 8 0Z"/><path stroke="#000" stroke-linejoin="round" stroke-width="12" d="M131.227 137.715c8.013 0 25.362 18.106 31.223 13.55 8.094-6.292 9.931-33.868 4.289-48.866-5.711-15.177-16.432-33.443-35.512-33.443q-1.773 0-3.5.174c-8.947-18.147-28.975-28.11-48.931-24.339-19.957 3.77-34.922 20.345-36.563 40.493-13.098 3.273-21.688 15.75-20.028 29.086 1.66 13.337 13.05 23.35 26.554 23.345z"/></svg>
